icons/3_Generic/Notes.svg

<svg width="1024" height="1024" viewBox="0 0 1024 1024" fill="none" xmlns="http://www.w3.org/2000/svg">
<g clip-path="url(#clip0_3_419)">
<path d="M512 1024C794.77 1024 1024 794.77 1024 512C1024 229.23 794.77 0 512 0C229.23 0 0 229.23 0 512C0 794.77 229.23 1024 512 1024Z" fill="#8C72BD"/>
<path d="M430.98 430.302C430.98 421.842 437.84 414.982 446.3 414.982H609.7C618.16 414.982 625.02 421.842 625.02 430.302C625.02 438.762 618.16 445.622 609.7 445.622H446.3C437.84 445.622 430.98 438.762 430.98 430.302ZM446.3 527.322H609.7C618.16 527.322 625.02 520.462 625.02 512.002C625.02 503.542 618.16 496.682 609.7 496.682H446.3C437.84 496.682 430.98 503.542 430.98 512.002C430.98 520.462 437.84 527.322 446.3 527.322ZM528 578.382H446.3C437.84 578.382 430.98 585.242 430.98 593.702C430.98 602.162 437.84 609.022 446.3 609.022H528C536.46 609.022 543.32 602.162 543.32 593.702C543.32 585.242 536.46 578.382 528 578.382ZM768 307.742V585.252C768.02 594.732 764.25 603.832 757.53 610.532L626.53 741.532C623.216 744.86 619.276 747.498 614.937 749.295C610.598 751.092 605.946 752.012 601.25 752.002H323.74C304 752.002 288 736.002 288 716.262V307.752C288 288.012 304 272.012 323.74 272.012H732.25C751.99 272.012 767.99 288.012 767.99 307.752L768 307.742ZM323.74 721.362H594.38V593.702C594.38 585.242 601.24 578.382 609.7 578.382H737.36V307.742C737.36 304.922 735.07 302.632 732.25 302.632H323.74C320.92 302.632 318.63 304.922 318.63 307.742V716.252C318.63 719.072 320.92 721.362 323.74 721.362ZM715.71 609.022H625.02V699.712L715.71 609.022Z" fill="white"/>
</g>
<defs>
<clipPath id="clip0_3_419">
<rect width="1024" height="1024" fill="white"/>
</clipPath>
</defs>
</svg>

<svg width="1024" height="1024" fill="none" xmlns="http://www.w3.org/2000/svg"><g clip-path="url(#a)"><path d="M512 1024c282.77 0 512-229.23 512-512S794.77 0 512 0 0 229.23 0 512s229.23 512 512 512Z" fill="#8C72BD"/><path d="M430.98 430.302c0-8.46 6.86-15.32 15.32-15.32h163.4c8.46 0 15.32 6.86 15.32 15.32s-6.86 15.32-15.32 15.32H446.3c-8.46 0-15.32-6.86-15.32-15.32Zm15.32 97.02h163.4c8.46 0 15.32-6.86 15.32-15.32s-6.86-15.32-15.32-15.32H446.3c-8.46 0-15.32 6.86-15.32 15.32s6.86 15.32 15.32 15.32Zm81.7 51.06h-81.7c-8.46 0-15.32 6.86-15.32 15.32s6.86 15.32 15.32 15.32H528c8.46 0 15.32-6.86 15.32-15.32s-6.86-15.32-15.32-15.32Zm240-270.64v277.51c.02 9.48-3.75 18.58-10.47 25.28l-131 131a35.564 35.564 0 0 1-25.28 10.47H323.74c-19.74 0-35.74-16-35.74-35.74v-408.51c0-19.74 16-35.74 35.74-35.74h408.51c19.74 0 35.74 16 35.74 35.74l.01-.01Zm-444.26 413.62h270.64v-127.66c0-8.46 6.86-15.32 15.32-15.32h127.66v-270.64c0-2.82-2.29-5.11-5.11-5.11H323.74c-2.82 0-5.11 2.29-5.11 5.11v408.51c0 2.82 2.29 5.11 5.11 5.11Zm391.97-112.34h-90.69v90.69l90.69-90.69Z" fill="#fff"/></g><defs><clipPath id="a"><path fill="#fff" d="M0 0h1024v1024H0z"/></clipPath></defs></svg>
